Yaru++/apps/scalable/deezer.svg

<svg enable-background="new" height="256" viewBox="0 0 256 256" width="256" xmlns="http://www.w3.org/2000/svg" xmlns:xlink="http://www.w3.org/1999/xlink">
  <linearGradient id="linearGradient4358" gradientTransform="matrix(0 -1 1 0 -10.0054 585.9946)" gradientUnits="userSpaceOnUse" x1="88" x2="488" y1="88" y2="488">
    <stop offset="0" stop-opacity=".588235"/>
    <stop offset=".88" stop-opacity="0"/>
    <stop offset="1"/>
  </linearGradient>
  <filter id="filter4380" color-interpolation-filters="sRGB" height="1.088" width="1.106" x="-.05" y="-.04">
    <feGaussianBlur stdDeviation="8.48"/>
  </filter>
  <filter id="filter4346" color-interpolation-filters="sRGB" height="1.022" width="1.026" x="-.01" y="-.01">
    <feGaussianBlur stdDeviation="2.12"/>
  </filter>
  <path d="m189.84323 74c-70.59344 0-78.18921 7.250835-77.84323 77.98706v146.01294 146.01294c-.34598 70.73623 7.24979 77.98706 77.84323 77.98706h196.31354c70.59344 0 76.00668-7.27384 77.84323-77.98706v-146.01294-146.01294c0-70.737067-7.24979-77.98706-77.84323-77.98706z" filter="url(#filter4346)" opacity=".1" transform="matrix(0 .5 -.5 0 276.82523 -15.328148)"/>
  <path d="m189.84323 74c-70.59344 0-78.18921 7.250835-77.84323 77.98706v146.01294 146.01294c-.34598 70.73623 7.24979 77.98706 77.84323 77.98706h196.31354c70.59344 0 77.84323-7.24999 77.84323-77.98706v-146.01294-146.01294c0-70.737067-7.24979-77.98706-77.84323-77.98706z" fill="url(#linearGradient4358)" filter="url(#filter4380)" opacity=".3" transform="matrix(0 .5 -.5 0 276.82523 -15.328148)"/>
  <path d="m241.83043 77.478254c0-36.098811-3.69016-39.983003-39.68984-39.806081h-74.31016-74.310154c-35.99969-.176922-39.68984 3.70727-39.68984 39.806081v100.387326c0 36.09881 3.68973 39.80608 39.68984 39.80608h74.310154 74.31016c36.00011 0 39.68984-3.70727 39.68984-39.80608z" opacity=".1"/>
  <path d="m239.82523 176.74484c0 35.29673-3.62542 39.09461-38.99353 38.92162h-73.00647-73.006464c-35.36812.17299-38.99353-3.62489-38.99353-38.92162v-98.156766c0-35.296716 3.625-38.921616 38.99353-38.921616h73.006464 73.00647c35.36853 0 38.99353 3.6249 38.99353 38.921616z" fill="#3b3b3b"/>
  <g fill="#fff">
    <path d="m54.81817 39.667201c-35.36853 0-38.992187 3.623202-38.992187 38.919923v98.158206c0 .0882.0019.16224.002.25v-96.410156c-.000047-35.29672 3.625564-38.921879 38.994094-38.921879h73.005853 73.00586c35.28016 0 38.97394 3.621035 38.99219 38.671879v-1.74805c0-35.296721-3.62561-38.919923-38.99414-38.919923h-73.00586z" opacity=".3"/>
    <path d="m53.648438 215.64844c.480053-.00029.677644.02236 1.169921.02148h73.007811 73.00586c.49228.00088.68987-.02177 1.16992-.02148-.42756-.00088-.73271.01971-1.16992.01758h-73.00586-73.007811c-.437213.00213-.742357-.01846-1.169921-.01758z" opacity=".1"/>
    <path d="m15.902344 180.76953c.029652 2.69182.037539 5.49376.148437 7.78906.168211 3.48152.446324 6.52512.892578 9.1836.446255 2.65847 1.0604 4.93203 1.894532 6.875.417065.97148.889199 1.85911 1.423828 2.67187.534629.81277 1.130954 1.54931 1.796875 2.2168s1.401948 1.26707 2.21289 1.80273c.810943.53566 1.696323 1.00852 2.666016 1.42579 1.939385.83453 4.210425 1.4451 6.867188 1.88671 2.522875.41937 5.454385.66856 8.720703.82813 3.531177.07588 6.558971.20196 11.123047.19922.427564-.00088.732708.01971 1.169921.01758h73.007811 73.00586c.43721.00213.74236-.01846 1.16992-.01758 4.56408.00275 7.59181-.12334 11.12305-.19922 3.26632-.15957 6.19783-.40876 8.7207-.82813 2.65676-.44161 4.92781-1.05218 6.86719-1.88671.96969-.41727 1.85507-.89013 2.66602-1.42579.81094-.53566 1.54697-1.13524 2.21289-1.80273s1.26224-1.40403 1.79687-2.2168c.53463-.81276 1.00676-1.70039 1.42383-2.67187.83413-1.94297 1.44828-4.21653 1.89453-6.875.44626-2.65848.72437-5.70208.89258-9.1836.1109-2.29529.11878-5.09725.14844-7.78906z" opacity=".1"/>
  </g>
  <path d="m15.520889 174.22376v2c0 35.29673 3.624067 39.09487 38.992187 38.92188h73.007814 73.00586c35.36811.17299 38.99414-3.62515 38.99414-38.92188v-2c0 35.29673-3.62603 39.09487-38.99414 38.92188h-73.00586-73.007814c-35.36812.17299-38.992187-3.62515-38.992187-38.92188z" opacity=".2"/>
  <g enable-background="new" transform="matrix(1.82692309677 0 0 1.82692309677 315.98908781574 -263.95474665778)">
    <path d="m-154.99495 243.37942h18.96087v-5.74599h-18.96087z" fill="#f22c42"/>
    <path d="m-154.99495 235.9113h18.96087v-5.74677h-18.96087z" fill="#f22c42"/>
    <path d="m-154.99495 228.44242h18.96087v-5.74678h-18.96087z" fill="#f22c42"/>
    <path d="m-154.99495 220.97201h18.96087v-5.74439h-18.96087z" fill="#fa9381"/>
    <path d="m-154.99495 213.50142h18.96087v-5.74439h-18.96087z" fill="#fa9381"/>
    <path d="m-133.73551 243.37942h18.96165v-5.74599h-18.96165z" fill="#fdc92b"/>
    <path d="m-133.73551 235.9113h18.96165v-5.74677h-18.96165z" fill="#fdc92b"/>
    <path d="m-133.73551 228.44242h18.96165v-5.74678h-18.96165z" fill="#fdc92b"/>
    <path d="m-112.47607 243.37942h18.961655v-5.74599h-18.961655z" fill="#c43ac4"/>
    <path d="m-112.47607 235.9113h18.961655v-5.74677h-18.961655z" fill="#c43ac4"/>
    <path d="m-112.47607 228.44242h18.961655v-5.74678h-18.961655z" fill="#c43ac4"/>
    <path d="m-112.47607 220.97201h18.961655v-5.74439h-18.961655z" fill="#e97cc8"/>
    <path d="m-112.47607 213.50142h18.961655v-5.74439h-18.961655z" fill="#e97cc8"/>
    <path d="m-112.47607 206.03245h18.961655v-5.74599h-18.961655z" fill="#e97cc8"/>
    <path d="m-112.47607 198.5645h18.961655v-5.74679h-18.961655z" fill="#e97cc8"/>
    <path d="m-91.216825 243.37942h18.960854v-5.74599h-18.960854z" fill="#76c22b"/>
    <path d="m-91.216825 235.9113h18.960854v-5.74677h-18.960854z" fill="#76c22b"/>
    <path d="m-91.216825 228.44242h18.960854v-5.74678h-18.960854z" fill="#76c22b"/>
    <path d="m-91.216825 220.97201h18.960854v-5.74439h-18.960854z" fill="#cbe667"/>
    <path d="m-91.216825 213.50142h18.960854v-5.74439h-18.960854z" fill="#cbe667"/>
    <path d="m-69.95739 243.37942h18.96244v-5.74599h-18.96244z" fill="#1a7fd4"/>
    <path d="m-69.95739 235.9113h18.96244v-5.74677h-18.96244z" fill="#1a7fd4"/>
    <path d="m-69.95739 228.44002h18.96244v-5.74599h-18.96244z" fill="#1a7fd4"/>
    <g fill="#6dc7f1">
      <path d="m-69.95739 220.97201h18.96244v-5.74679h-18.96244z"/>
      <path d="m-69.95739 213.50142h18.96244v-5.74678h-18.96244z"/>
      <path d="m-69.95739 206.03103h18.96244v-5.74439h-18.96244z"/>
      <path d="m-69.95739 198.56044h18.96244v-5.74439h-18.96244z"/>
      <path d="m-69.95739 191.09167h18.96244v-5.74598h-18.96244z"/>
    </g>
  </g>
</svg>

<svg xmlns="http://www.w3.org/2000/svg" xmlns:xlink="http://www.w3.org/1999/xlink" style="enable-background:new" width="256" height="256" version="1.0" viewBox="0 0 256 256">
 <title id="title4162">
  Adwaita Icon Template
 </title>
 <defs>
  <linearGradient id="linearGradient965" x1="48" x2="464" y1="44" y2="44" gradientUnits="userSpaceOnUse">
   <stop id="stop989" offset="0" style="stop-color:#77767b"/>
   <stop id="stop991" offset=".05" style="stop-color:#c0bfbc"/>
   <stop id="stop993" offset=".1" style="stop-color:#9a9996"/>
   <stop id="stop995" offset=".9" style="stop-color:#9a9996"/>
   <stop id="stop997" offset=".95" style="stop-color:#c0bfbc"/>
   <stop id="stop999" offset="1" style="stop-color:#77767b"/>
  </linearGradient>
  <radialGradient id="radialGradient1030" cx="64" cy="194.19" r="44" gradientTransform="matrix(-4.7273,7.9359e-7,-3.0301e-7,-1.6364,238.55,49.766)" gradientUnits="userSpaceOnUse">
   <stop id="stop1016" offset="0" style="stop-color:#fff"/>
   <stop id="stop1018" offset="1" style="stop-color:#fff;stop-opacity:.094118"/>
  </radialGradient>
  <linearGradient id="linearGradient1950" x1="70.347" x2="70.347" y1="245.4" y2="269.14" gradientUnits="userSpaceOnUse">
   <stop id="stop1944" offset="0" style="stop-color:#2d2839"/>
   <stop id="stop1946" offset="1" style="stop-color:#282433"/>
  </linearGradient>
  <linearGradient id="linearGradient4358" x1="88" x2="488" y1="88" y2="488" gradientTransform="rotate(-90,287.9946,298)" gradientUnits="userSpaceOnUse" xlink:href="#linearGradient4360"/>
  <linearGradient id="linearGradient4360">
   <stop id="stop4362" offset="0" style="stop-color:#000000;stop-opacity:0.58823532"/>
   <stop style="stop-color:#000000;stop-opacity:0" id="stop4364" offset=".88"/>
   <stop id="stop4366" offset="1" style="stop-color:#000000"/>
  </linearGradient>
  <filter style="color-interpolation-filters:sRGB" id="filter4380" width="1.106" height="1.088" x="-.05" y="-.04">
   <feGaussianBlur id="feGaussianBlur4382" stdDeviation="8.48"/>
  </filter>
  <filter style="color-interpolation-filters:sRGB" id="filter4346" width="1.026" height="1.022" x="-.01" y="-.01">
   <feGaussianBlur id="feGaussianBlur4348" stdDeviation="2.12"/>
  </filter>
  <linearGradient id="linearGradient1007">
   <stop style="stop-color:#2dc0af" id="stop1003" offset="0"/>
   <stop style="stop-color:#61a1d2" id="stop1005" offset="1"/>
  </linearGradient>
  <linearGradient id="linearGradient6809-3">
   <stop style="stop-color:#f6d123" id="stop6805" offset="0"/>
   <stop style="stop-color:#2dc0af;stop-opacity:0.13779527" id="stop6807" offset="1"/>
  </linearGradient>
  <linearGradient id="linearGradient6826">
   <stop style="stop-color:#50dbb5" id="stop6822" offset="0"/>
   <stop style="stop-color:#4a86cf" id="stop6824" offset="1"/>
  </linearGradient>
  <radialGradient id="radialGradient439" cx="184" cy="-179.602" r="225" fx="184" fy="-179.602" gradientTransform="matrix(0.25,0,0,0.1967778,-162.99495,200.7212)" gradientUnits="userSpaceOnUse" xlink:href="#linearGradient6826"/>
  <radialGradient id="radialGradient441" cx="256" cy="267.602" r="225" fx="256" fy="267.602" gradientTransform="matrix(0.45333333,0,0,0.35682373,-215.04828,157.89251)" gradientUnits="userSpaceOnUse" xlink:href="#linearGradient6809-3"/>
  <linearGradient id="linearGradient443" x1="230" x2="230" y1="204" y2="172" gradientTransform="matrix(0.25,0,0,0.25,-162.99495,202.37942)" gradientUnits="userSpaceOnUse" xlink:href="#linearGradient1007"/>
  <linearGradient id="a">
   <stop id="stop2" offset="0" stop-color="#68676b"/>
   <stop id="stop4" offset=".8" stop-color="#424048"/>
   <stop id="stop6" offset="1" stop-color="#241f31"/>
  </linearGradient>
  <radialGradient id="d" cx="279.422" cy="446.483" r="224" fx="279.422" fy="446.483" gradientTransform="matrix(1.34416 .0006 -.00062 1.38763 -121.22 -718.103)" gradientUnits="userSpaceOnUse" xlink:href="#a"/>
  <linearGradient id="e" x1="43.844" x2="-60" y1="234" y2="234" gradientTransform="matrix(1.0015,0,0,0.99993,72.09,56.015)" gradientUnits="userSpaceOnUse" xlink:href="#b"/>
  <linearGradient id="b">
   <stop id="stop11" offset="0" stop-color="#d5d3cf"/>
   <stop id="stop13" offset=".038" stop-color="#e3e2df"/>
   <stop id="stop15" offset=".077" stop-color="#c0bfbc"/>
   <stop id="stop17" offset=".923" stop-color="#c0bfbc"/>
   <stop id="stop19" offset=".962" stop-color="#e3e2df"/>
   <stop id="stop21" offset="1" stop-color="#d5d3cf"/>
  </linearGradient>
  <linearGradient id="linearGradient3919" x1="42" x2="54" y1="49" y2="49" gradientTransform="matrix(0.68426737,0,0,0.68426737,-51.579387,227.56429)" gradientUnits="userSpaceOnUse">
   <stop id="stop25" offset="0" style="stop-color:#464646"/>
   <stop id="stop27" offset="1" style="stop-color:#464646;stop-opacity:0"/>
  </linearGradient>
  <linearGradient id="linearGradient3831-3" x1="15" x2="15" y1="48" y2="8" gradientTransform="matrix(0.74912138,0,0,0.74912138,2.9232156,224.77708)" gradientUnits="userSpaceOnUse" spreadMethod="reflect" xlink:href="#linearGradient3825"/>
  <linearGradient id="linearGradient3825">
   <stop id="stop30" offset="0" style="stop-color:#000000"/>
   <stop id="stop32" offset=".6" style="stop-color:#000000"/>
   <stop id="stop34" offset="1" style="stop-color:#000000;stop-opacity:0"/>
  </linearGradient>
  <linearGradient id="linearGradient3862-3" x1="15" x2="15" y1="48" y2="8" gradientTransform="matrix(0,0.74912138,-0.74912138,0,72.966065,227.02444)" gradientUnits="userSpaceOnUse" spreadMethod="reflect" xlink:href="#linearGradient3825"/>
  <linearGradient id="linearGradient3831-3-6" x1="15" x2="15" y1="48" y2="8" gradientTransform="matrix(0.7491214,0,0,0.7491214,-61.700945,221.92589)" gradientUnits="userSpaceOnUse" spreadMethod="reflect" xlink:href="#linearGradient3825"/>
  <linearGradient id="linearGradient3862-3-5" x1="15" x2="15" y1="48" y2="8" gradientTransform="matrix(0,0.7491214,-0.7491214,0,8.3419061,224.17325)" gradientUnits="userSpaceOnUse" spreadMethod="reflect" xlink:href="#linearGradient3825"/>
  <linearGradient id="linearGradient4009">
   <stop id="stop4011" offset="0" style="stop-color:#f57900"/>
   <stop id="stop4013" offset="1" style="stop-color:#ffc286"/>
  </linearGradient>
  <linearGradient id="linearGradient3928">
   <stop id="stop3930" offset="0" style="stop-color:#61635f"/>
   <stop id="stop3932" offset="1" style="stop-color:#999b96"/>
  </linearGradient>
  <linearGradient id="linearGradient3697">
   <stop id="stop3699" offset="0" style="stop-color:#73d216"/>
   <stop id="stop3701" offset="1" style="stop-color:#adf06b"/>
  </linearGradient>
 </defs>
 <path style="opacity:0.1;filter:url(#filter4346)" d="M 189.84323,74 C 119.24979,74 111.65402,81.250835 112,151.98706 V 298 444.01294 C 111.65402,514.74917 119.24979,522 189.84323,522 H 386.15677 C 456.75021,522 462.16345,514.72616 464,444.01294 V 298 151.98706 C 464,81.249993 456.75021,74 386.15677,74 Z" transform="matrix(0,0.5,-0.5,0,276.82523,-15.328148)"/>
 <path d="M 189.84323,74 C 119.24979,74 111.65402,81.250835 112,151.98706 V 298 444.01294 C 111.65402,514.74917 119.24979,522 189.84323,522 H 386.15677 C 456.75021,522 464,514.75001 464,444.01294 V 298 151.98706 C 464,81.249993 456.75021,74 386.15677,74 Z" transform="matrix(0,0.5,-0.5,0,276.82523,-15.328148)" style="opacity:0.3;fill:url(#linearGradient4358);filter:url(#filter4380)"/>
 <path style="opacity:0.1" d="m 241.83043,77.478254 c 0,-36.098811 -3.69016,-39.983003 -39.68984,-39.806081 H 127.83043 53.520276 c -35.99969,-0.176922 -39.68984,3.70727 -39.68984,39.806081 V 177.86558 c 0,36.09881 3.68973,39.80608 39.68984,39.80608 h 74.310154 74.31016 c 36.00011,0 39.68984,-3.70727 39.68984,-39.80608 z"/>
 <path style="fill:#3b3b3b" d="m 239.82523,176.74484 c 0,35.29673 -3.62542,39.09461 -38.99353,38.92162 H 127.82523 54.818766 c -35.36812,0.17299 -38.99353,-3.62489 -38.99353,-38.92162 V 78.588074 c 0,-35.296716 3.625,-38.921616 38.99353,-38.921616 h 73.006464 73.00647 c 35.36853,0 38.99353,3.6249 38.99353,38.921616 z"/>
 <path style="opacity:0.3;fill:#ffffff" d="m 54.81817,39.667201 c -35.36853,0 -38.992187,3.623202 -38.992187,38.919923 v 98.158206 c 0,0.0882 0.0019,0.16224 0.002,0.25 V 80.585174 c -4.7e-5,-35.29672 3.625564,-38.921879 38.994094,-38.921879 h 73.005853 73.00586 c 35.28016,0 38.97394,3.621035 38.99219,38.671879 v -1.74805 c 0,-35.296721 -3.62561,-38.919923 -38.99414,-38.919923 h -73.00586 z"/>
 <path style="opacity:0.1;fill:#ffffff" d="M 53.648438 215.64844 C 54.128491 215.64815 54.326082 215.6708 54.818359 215.66992 L 127.82617 215.66992 L 200.83203 215.66992 C 201.32431 215.6708 201.5219 215.64815 202.00195 215.64844 C 201.57439 215.64756 201.26924 215.66815 200.83203 215.66602 L 127.82617 215.66602 L 54.818359 215.66602 C 54.381146 215.66815 54.076002 215.64756 53.648438 215.64844 z"/>
 <path style="opacity:0.1;fill:#ffffff" d="M 15.902344 180.76953 C 15.931996 183.46135 15.939883 186.26329 16.050781 188.55859 C 16.218992 192.04011 16.497105 195.08371 16.943359 197.74219 C 17.389614 200.40066 18.003759 202.67422 18.837891 204.61719 C 19.254956 205.58867 19.72709 206.4763 20.261719 207.28906 C 20.796348 208.10183 21.392673 208.83837 22.058594 209.50586 C 22.724515 210.17335 23.460542 210.77293 24.271484 211.30859 C 25.082427 211.84425 25.967807 212.31711 26.9375 212.73438 C 28.876885 213.56891 31.147925 214.17948 33.804688 214.62109 C 36.327563 215.04046 39.259073 215.28965 42.525391 215.44922 C 46.056568 215.5251 49.084362 215.65118 53.648438 215.64844 C 54.076002 215.64756 54.381146 215.66815 54.818359 215.66602 L 127.82617 215.66602 L 200.83203 215.66602 C 201.26924 215.66815 201.57439 215.64756 202.00195 215.64844 C 206.56603 215.65119 209.59376 215.5251 213.125 215.44922 C 216.39132 215.28965 219.32283 215.04046 221.8457 214.62109 C 224.50246 214.17948 226.77351 213.56891 228.71289 212.73438 C 229.68258 212.31711 230.56796 211.84425 231.37891 211.30859 C 232.18985 210.77293 232.92588 210.17335 233.5918 209.50586 C 234.25772 208.83837 234.85404 208.10183 235.38867 207.28906 C 235.9233 206.4763 236.39543 205.58867 236.8125 204.61719 C 237.64663 202.67422 238.26078 200.40066 238.70703 197.74219 C 239.15329 195.08371 239.4314 192.04011 239.59961 188.55859 C 239.71051 186.2633 239.71839 183.46134 239.74805 180.76953 L 15.902344 180.76953 z"/>
 <path style="opacity:0.2" d="m 15.520889,174.22376 v 2 c 0,35.29673 3.624067,39.09487 38.992187,38.92188 h 73.007814 73.00586 c 35.36811,0.17299 38.99414,-3.62515 38.99414,-38.92188 v -2 c 0,35.29673 -3.62603,39.09487 -38.99414,38.92188 H 127.52089 54.513076 c -35.36812,0.17299 -38.992187,-3.62515 -38.992187,-38.92188 z"/>
 <g style="enable-background:new" transform="matrix(0.59141278,0,0,0.59141278,-134.21551,111.23171)">
  <g style="enable-background:new" transform="matrix(1.6908664,0,0,1.6908664,-41.431366,-204.75531)">
   <g id="layer1" transform="translate(-21.245282,-176.4261)">
    <g id="layer9">
     <g style="enable-background:new" transform="translate(176.56832,39.9319)">
      <g transform="matrix(1.8269231,0,0,1.8269231,319.3846,-117.59735)">
       <path d="m -154.99495,243.37942 h 18.96087 v -5.74599 h -18.96087 z" style="fill:#f22c42"/>
       <path d="m -154.99495,235.9113 h 18.96087 v -5.74677 h -18.96087 z" style="fill:#f22c42"/>
       <path d="m -154.99495,228.44242 h 18.96087 v -5.74678 h -18.96087 z" style="fill:#f22c42"/>
       <path d="m -154.99495,220.97201 h 18.96087 v -5.74439 h -18.96087 z" style="fill:#fa9381"/>
       <path d="m -154.99495,213.50142 h 18.96087 v -5.74439 h -18.96087 z" style="fill:#fa9381"/>
       <path d="m -133.73551,243.37942 h 18.96165 v -5.74599 h -18.96165 z" style="fill:#fdc92b"/>
       <path d="m -133.73551,235.9113 h 18.96165 v -5.74677 h -18.96165 z" style="fill:#fdc92b"/>
       <path d="m -133.73551,228.44242 h 18.96165 v -5.74678 h -18.96165 z" style="fill:#fdc92b"/>
       <path d="m -112.47607,243.37942 h 18.961655 v -5.74599 h -18.961655 z" style="fill:#c43ac4"/>
       <path d="m -112.47607,235.9113 h 18.961655 v -5.74677 h -18.961655 z" style="fill:#c43ac4"/>
       <path d="m -112.47607,228.44242 h 18.961655 v -5.74678 h -18.961655 z" style="fill:#c43ac4"/>
       <path d="m -112.47607,220.97201 h 18.961655 v -5.74439 h -18.961655 z" style="fill:#e97cc8"/>
       <path d="m -112.47607,213.50142 h 18.961655 v -5.74439 h -18.961655 z" style="fill:#e97cc8"/>
       <path d="m -112.47607,206.03245 h 18.961655 v -5.74599 h -18.961655 z" style="fill:#e97cc8"/>
       <path d="m -112.47607,198.5645 h 18.961655 v -5.74679 h -18.961655 z" style="fill:#e97cc8"/>
       <path d="m -91.216825,243.37942 h 18.960854 v -5.74599 h -18.960854 z" style="fill:#76c22b"/>
       <path d="m -91.216825,235.9113 h 18.960854 v -5.74677 h -18.960854 z" style="fill:#76c22b"/>
       <path d="m -91.216825,228.44242 h 18.960854 v -5.74678 h -18.960854 z" style="fill:#76c22b"/>
       <path d="m -91.216825,220.97201 h 18.960854 v -5.74439 h -18.960854 z" style="fill:#cbe667"/>
       <path d="m -91.216825,213.50142 h 18.960854 v -5.74439 h -18.960854 z" style="fill:#cbe667"/>
       <path d="m -69.95739,243.37942 h 18.96244 v -5.74599 h -18.96244 z" style="fill:#1a7fd4"/>
       <path d="m -69.95739,235.9113 h 18.96244 v -5.74677 h -18.96244 z" style="fill:#1a7fd4"/>
       <path d="m -69.95739,228.44002 h 18.96244 v -5.74599 h -18.96244 z" style="fill:#1a7fd4"/>
       <path d="m -69.95739,220.97201 h 18.96244 v -5.74679 h -18.96244 z" style="fill:#6dc7f1"/>
       <path d="m -69.95739,213.50142 h 18.96244 v -5.74678 h -18.96244 z" style="fill:#6dc7f1"/>
       <path d="m -69.95739,206.03103 h 18.96244 v -5.74439 h -18.96244 z" style="fill:#6dc7f1"/>
       <path d="m -69.95739,198.56044 h 18.96244 v -5.74439 h -18.96244 z" style="fill:#6dc7f1"/>
       <path d="m -69.95739,191.09167 h 18.96244 v -5.74598 h -18.96244 z" style="fill:#6dc7f1"/>
      </g>
     </g>
    </g>
   </g>
  </g>
 </g>
</svg>
